X: 3
T: Morning Sunday
R: jig
M: 6/8
L: 1/8
K: Dmaj
FAD DEF|GAG GFG|ABA Aef|gec AGE
FAD DEF|GAG GFG|Aaf ged|cBc d3:|
afd dfa|bge efg|aba ged|cAA A3||
[1 afd dfa|bge efg|aba ged|cBc d3:|
[2 dfe dAF|GBe efg|aba ged|cBc d3||

